icons/delete-bin-3-line.svg

<svg xmlns="http://www.w3.org/2000/svg" width="24" height="24" fill="none"><g clip-path="url(#a)"><g><path fill="#121212" d="M20 7V20C20 20.5304 19.7893 21.0391 19.4142 21.4142C19.0391 21.7893 18.5304 22 18 22H6C5.46957 22 4.96086 21.7893 4.58579 21.4142C4.21071 21.0391 4 20.5304 4 20V7H2V5H22V7H20ZM6 7V20H18V7H6ZM11 9H13V11H11V9ZM11 12H13V14H11V12ZM11 15H13V17H11V15ZM7 2H17V4H7V2Z"/></g></g><defs><clipPath id="a"><rect width="24" height="24" fill="white"/></clipPath></defs></svg>

<svg width="24" height="24" fill="none" xmlns="http://www.w3.org/2000/svg"><g clip-path="url(#a)"><path d="M20 7v13a2 2 0 0 1-2 2H6a2 2 0 0 1-2-2V7H2V5h20v2h-2ZM6 7v13h12V7H6Zm5 2h2v2h-2V9Zm0 3h2v2h-2v-2Zm0 3h2v2h-2v-2ZM7 2h10v2H7V2Z" /></g><defs><clipPath id="a"><path fill="#fff" d="M0 0h24v24H0z"/></clipPath></defs></svg>
